ix/like-dislike_outline.svg

<svg viewBox="0 0 24 24" fill="none" xmlns="http://www.w3.org/2000/svg" height="1em" width="1em">
  <path d="M9.9493 22.7499H7.7793C7.3893 22.7499 6.6093 22.6298 6.1593 22.1898L4.4593 20.8799L5.3793 19.6898L7.1493 21.0599C7.2793 21.1699 7.5493 21.2499 7.7793 21.2499H9.9493C10.3193 21.2499 10.7393 20.9399 10.8193 20.6199L12.2093 16.3899C12.2493 16.2899 12.2793 16.1399 12.2093 16.0299C12.1493 15.9399 12.0093 15.8899 11.8393 15.8899H9.5493C9.1593 15.8899 8.7993 15.7199 8.5393 15.4299C8.2793 15.1299 8.1693 14.7498 8.2293 14.3398L8.51929 12.4999C8.55929 12.3299 8.4393 12.1198 8.2793 12.0698C8.1493 12.0198 7.9293 12.1099 7.8793 12.1799L5.5293 15.6699L4.2793 14.8298L6.6193 11.3398C7.0593 10.6798 8.0193 10.3799 8.7593 10.6599C9.6093 10.9399 10.1693 11.8999 9.9693 12.7799L9.7193 14.3799H11.8093C12.4793 14.3799 13.0593 14.6599 13.4093 15.1599C13.7493 15.6399 13.8193 16.2699 13.5993 16.8699L12.2293 21.0299C12.0293 21.9699 11.0093 22.7499 9.9493 22.7499Z" fill="#292D32"/>
  <path d="M3.71976 22.1199H3.14977C1.58977 22.1199 1.25977 21.1199 1.25977 20.2799V14.6799C1.25977 13.8399 1.58977 12.8398 3.14977 12.8398H3.71976C5.27976 12.8398 5.60976 13.8399 5.60976 14.6799V20.2799C5.60976 21.1199 5.27976 22.1199 3.71976 22.1199ZM2.78976 20.5798C2.79976 20.5798 2.89976 20.6199 3.13976 20.6199H3.70976C3.96976 20.6199 4.05977 20.5798 4.07977 20.5698C4.07977 20.5598 4.10976 20.4899 4.10976 20.2799V14.6799C4.10976 14.4699 4.07976 14.3899 4.06976 14.3799C4.06976 14.3999 3.96976 14.3398 3.71976 14.3398H3.14977C2.88977 14.3398 2.79976 14.3799 2.77976 14.3899C2.77976 14.3999 2.74976 14.4699 2.74976 14.6799V20.2799C2.74976 20.4899 2.77976 20.5698 2.78976 20.5798Z" fill="#292D32"/>
  <path d="M15.8102 13.4399C15.6102 13.4399 15.4102 13.41 15.2202 13.34C14.3702 13.06 13.8102 12.1 14.0102 11.22L14.2602 9.62H12.1702C11.5002 9.62 10.9202 9.33997 10.5702 8.83997C10.2302 8.35997 10.1602 7.73 10.3802 7.13L11.7502 2.96997C11.9802 2.02997 13.0102 1.25 14.0602 1.25H16.2302C16.6202 1.25 17.4002 1.37006 17.8502 1.81006L19.5502 3.12L18.6302 4.31006L16.8602 2.93994C16.7302 2.82994 16.4602 2.75 16.2302 2.75H14.0602C13.6902 2.75 13.2702 3.06 13.1902 3.38L11.8002 7.60999C11.7602 7.70999 11.7302 7.85997 11.8002 7.96997C11.8602 8.05997 12.0002 8.10999 12.1702 8.10999H14.4602C14.8502 8.10999 15.2102 8.27995 15.4702 8.56995C15.7302 8.86995 15.8402 9.25003 15.7802 9.66003L15.4902 11.5C15.4502 11.67 15.5702 11.8801 15.7302 11.9301C15.8702 11.9801 16.0802 11.8999 16.1302 11.8199L18.4802 8.32996L19.7302 9.17004L17.3902 12.66C17.0302 13.14 16.4102 13.4399 15.8102 13.4399Z" fill="#292D32"/>
  <path d="M20.8604 11.1599H20.2904C18.7304 11.1599 18.4004 10.1598 18.4004 9.31982V3.71985C18.4004 2.87985 18.7304 1.87988 20.2904 1.87988H20.8604C22.4204 1.87988 22.7504 2.87985 22.7504 3.71985V9.31982C22.7504 10.1598 22.4204 11.1599 20.8604 11.1599ZM19.9304 9.61987C19.9404 9.61987 20.0404 9.65991 20.2804 9.65991H20.8504C21.1104 9.65991 21.2004 9.61986 21.2204 9.60986C21.2204 9.59986 21.2504 9.52982 21.2504 9.31982V3.71985C21.2504 3.50985 21.2204 3.43992 21.2104 3.41992C21.2204 3.45992 21.1104 3.37988 20.8604 3.37988H20.2904C20.0304 3.37988 19.9404 3.41993 19.9204 3.42993C19.9204 3.43993 19.8904 3.50985 19.8904 3.71985V9.31982C19.8904 9.52982 19.9204 9.59987 19.9304 9.61987Z" fill="#292D32"/>
</svg>

<svg viewBox="0 0 24 24" fill="none" xmlns="http://www.w3.org/2000/svg" height="1em" width="1em">
  <path d="M9.95 22.75H7.78c-.39 0-1.17-.12-1.62-.56l-1.7-1.31.92-1.19 1.77 1.37c.13.11.4.19.63.19h2.17c.37 0 .79-.31.87-.63l1.39-4.23c.04-.1.07-.25 0-.36-.06-.09-.2-.14-.37-.14H9.55c-.39 0-.75-.17-1.01-.46-.26-.3-.37-.68-.31-1.09l.29-1.84c.04-.17-.08-.38-.24-.43-.13-.05-.35.04-.4.11l-2.35 3.49-1.25-.84 2.34-3.49c.44-.66 1.4-.96 2.14-.68.85.28 1.41 1.24 1.21 2.12l-.25 1.6h2.09c.67 0 1.25.28 1.6.78.34.48.41 1.11.19 1.71l-1.37 4.16c-.2.94-1.22 1.72-2.28 1.72Z" fill="#292D32"/>
  <path d="M3.72 22.12h-.57c-1.56 0-1.89-1-1.89-1.84v-5.6c0-.84.33-1.84 1.89-1.84h.57c1.56 0 1.89 1 1.89 1.84v5.6c0 .84-.33 1.84-1.89 1.84Zm-.93-1.54c.01 0 .11.04.35.04h.57c.26 0 .35-.04.37-.05 0-.01.03-.08.03-.29v-5.6c0-.21-.03-.29-.04-.3 0 .02-.1-.04-.35-.04h-.57c-.26 0-.35.04-.37.05 0 .01-.03.08-.03.29v5.6c0 .21.03.29.04.3Zm13.02-7.14c-.2 0-.4-.03-.59-.1-.85-.28-1.41-1.24-1.21-2.12l.25-1.6h-2.09c-.67 0-1.25-.28-1.6-.78-.34-.48-.41-1.11-.19-1.71l1.37-4.16c.23-.94 1.26-1.72 2.31-1.72h2.17c.39 0 1.17.12 1.62.56l1.7 1.31-.92 1.19-1.77-1.37c-.13-.11-.4-.19-.63-.19h-2.17c-.37 0-.79.31-.87.63L11.8 7.61c-.04.1-.07.25 0 .36.06.09.2.14.37.14h2.29c.39 0 .75.17 1.01.46.26.3.37.68.31 1.09l-.29 1.84c-.04.17.08.38.24.43.14.05.35-.03.4-.11l2.35-3.49 1.25.84-2.34 3.49c-.36.48-.98.78-1.58.78Z" fill="#292D32"/>
  <path d="M20.86 11.16h-.57c-1.56 0-1.89-1-1.89-1.84v-5.6c0-.84.33-1.84 1.89-1.84h.57c1.56 0 1.89 1 1.89 1.84v5.6c0 .84-.33 1.84-1.89 1.84Zm-.93-1.54c.01 0 .11.04.35.04h.57c.26 0 .35-.04.37-.05 0-.01.03-.08.03-.29v-5.6c0-.21-.03-.28-.04-.3.01.04-.1-.04-.35-.04h-.57c-.26 0-.35.04-.37.05 0 .01-.03.08-.03.29v5.6c0 .21.03.28.04.3Z" fill="#292D32"/>
</svg>
